SVG/ico__user.svg

<svg xmlns="http://www.w3.org/2000/svg" viewBox="0 0 240 240">
  <path d="M40,219.8c0-44.18,35.82-80,80-80s80,35.82,80,80h-20c0-33.14-26.86-60-60-60s-60,26.86-60,60h-20Z"/>
  <path d="M120,20c-27.61,0-50,22.39-50,50s22.39,50,50,50,50-22.39,50-50-22.39-50-50-50ZM120,100c-16.57,0-30-13.43-30-30s13.43-30,30-30,30,13.43,30,30-13.43,30-30,30Z"/>
</svg>

<svg width="240" height="240" viewBox="0 0 240 240" fill="none" xmlns="http://www.w3.org/2000/svg">
<path d="M40 219.8C40 175.62 75.82 139.8 120 139.8C164.18 139.8 200 175.62 200 219.8H180C180 186.66 153.14 159.8 120 159.8C86.86 159.8 60 186.66 60 219.8H40Z" fill="black"/>
<path d="M120 20C92.39 20 70 42.39 70 70C70 97.61 92.39 120 120 120C147.61 120 170 97.61 170 70C170 42.39 147.61 20 120 20ZM120 100C103.43 100 90 86.57 90 70C90 53.43 103.43 40 120 40C136.57 40 150 53.43 150 70C150 86.57 136.57 100 120 100Z" fill="black"/>
</svg>
